resources/svg/mic-2-line.svg

<svg fill="currentColor" viewBox="0 0 24 24" xmlns="http://www.w3.org/2000/svg"><path d="M11.9991 3C10.3422 3 8.9991 4.34315 8.9991 6V12C8.9991 13.6569 10.3422 15 11.9991 15C13.656 15 14.9991 13.6569 14.9991 12V6C14.9991 4.34315 13.656 3 11.9991 3ZM11.9991 1C14.7605 1 16.9991 3.23858 16.9991 6V12C16.9991 14.7614 14.7605 17 11.9991 17C9.23767 17 6.9991 14.7614 6.9991 12V6C6.9991 3.23858 9.23767 1 11.9991 1ZM2.19141 13.9615L4.15294 13.5692C4.88224 17.2361 8.1179 20 11.9991 20C15.8803 20 19.1159 17.2361 19.8452 13.5692L21.8068 13.9615C20.8952 18.5452 16.8506 22 11.9991 22C7.1476 22 3.10303 18.5452 2.19141 13.9615Z"/></svg>

<svg xmlns="http://www.w3.org/2000/svg" viewBox="0 0 24 24" fill="currentColor">
    <g>
        <path fill="none" d="M0 0h24v24H0z"/>
        <path d="M12 3a3 3 0 0 0-3 3v6a3 3 0 0 0 6 0V6a3 3 0 0 0-3-3zm0-2a5 5 0 0 1 5 5v6a5 5 0 0 1-10 0V6a5 5 0 0 1 5-5zM2.192 13.962l1.962-.393a8.003 8.003 0 0 0 15.692 0l1.962.393C20.896 18.545 16.85 22 12 22s-8.896-3.455-9.808-8.038z"/>
    </g>
</svg>
